www/assets/icons/synagogue.svg

<svg xmlns="http://www.w3.org/2000/svg" width="24" height="24" viewBox="0 0 24 24" fill='currentColor'><path d="M6 8v13h4v-5c0-1.1.9-2 2-2s2 .9 2 2v5h4V8l-6-5zm7.5 2c0 .83-.67 1.5-1.5 1.5s-1.5-.67-1.5-1.5.67-1.5 1.5-1.5 1.5.67 1.5 1.5M3 5c-1.1 0-2 .9-2 2v1h4V7c0-1.1-.9-2-2-2m2 4H1v12h4zm16-4c-1.1 0-2 .9-2 2v1h4V7c0-1.1-.9-2-2-2m2 4h-4v12h4z"/></svg>

<svg width="24" height="24" viewBox="0 0 24 24" xmlns="http://www.w3.org/2000/svg" fill='currentColor'><path d="M6 8V21H10V16C10 14.9 10.9 14 12 14C13.1 14 14 14.9 14 16V21H18V8L12 3L6 8ZM13.5 10C13.5 10.83 12.83 11.5 12 11.5C11.17 11.5 10.5 10.83 10.5 10C10.5 9.17 11.17 8.5 12 8.5C12.83 8.5 13.5 9.17 13.5 10Z"/><path d="M3 5C1.9 5 1 5.9 1 7V8H5V7C5 5.9 4.1 5 3 5Z"/><path d="M5 9H1V21H5V9Z"/><path d="M21 5C19.9 5 19 5.9 19 7V8H23V7C23 5.9 22.1 5 21 5Z"/><path d="M23 9H19V21H23V9Z"/></svg>
